X:1
T: McFadden's Mishap
C:
R:Reel
Q: 232
K:G
M:4/4
L:1/8
G2 DB, G,B, DB,|CB, A,B, CD EF|G2 DB, G,B, DF|Gg dc Bc AF|
G2 DB, G,B, DB,|CB, A,B, CD EF|GF Gf ((3gfe) dc|((3Bcd) Ac BG G2|
|:g2 dB GB df|gb ag fd ef|g2 dB GB dB|cB AG FG Ad|
ge dB GB df|gb ag fg ag|((3bag) ((3agf) ((3gfe) dc|1((3Bcd) AG FG Ad:|2((3Bcd) AG FD EF|
G2 DB, G,B, DB,|CB, A,B, CD EF|G2 DB, G,B, DF|Gg dc Bc AF|
G2 DB, G,B, DB,|CB, A,B, CD EF|GF Gf ((3gfe) dc|((3Bcd) Ac BG G2||
